X: 39467
T: Tarbolton, The
R: reel
M: 4/4
K: Edorian
|:EB ed eB BA|GB AF GF EF|DA dc dA AG|FD AG FD D2|
EB ed ef ge|fe df ed BA|~G2 BG FG A=c|BG AF GE E2:|
|:gf ef (3:gfe be|ge be gf ef|d2 fd Ad fd|Bd AG FD D2|
~G2 BG ~F2 AF|E2 ef gf ed|B=c BA GF GA|BG AF GE E2:|

